!!!OTL: Qipeng haozi
!!!ARE: Asia, China,ÿZhejiang, Zhoushan
!! III, 637(2)
!!!SCT: C1625
!!!YEM: Copyright 1995, estate of Helmut Schaffrath.
**kern
*ICvox
*Ivox
*M2/4
*k[]
*C:
{8dd
8dd
8gg
16ee
16dd
=1
4cc
8dd
8r}
=2
{8a
8a
8dd
16cc
16a
=3
8.g
16e
8a
8r}
=4
{8dd
8dd
8gg
8gg
=5
8ee
8aa
16gg
16ee
16dd
16r}
=6
{8a
8dd
16cc
8.dd
=7
4dd
16dd
16cc
16a
16cc
=8
8g
4.g}
=9
{2a
=10
2d
=11
[2g
=12
2g]}
==
!!!AGN: Haozi, Chuangong haozi
!!!AMT: simple duple
!!!AIN: vox
!!!EED: Helmut Schaffrath
!!!EEV: 1.0
*-
!!!ONB: Tied note syntax fixed by Craig Sapp, 2004/05/03/
